basket-plus-outline.svg

<svg fill="currentColor" viewBox="0 0 24 24"><path d="M20 15v3h3v2h-3v3h-2v-3h-3v-2h3v-3zm-8-2c-1.1 0-2 .9-2 2s.9 2 2 2 2-.9 2-2-.9-2-2-2m1.35 8H5.5c-.92 0-1.69-.62-1.92-1.46l-2.54-9.27C1 10.18 1 10.09 1 10c0-.55.45-1 1-1h4.79l4.38-6.55a.997.997 0 0 1 1.66-.01L17.21 9H22c.55 0 1 .45 1 1l-.03.27-.97 3.54c-.57-.31-1.21-.57-1.88-.7L20.7 11H3.31l2.19 8H13c0 .7.13 1.37.35 2M9.2 9h5.6L12 4.8z"/></svg>

<svg  viewBox="0 0 24 24" fill="currentColor"><path  d="M20 15V18H23V20H20V23H18V20H15V18H18V15H20M12 13C10.9 13 10 13.9 10 15S10.9 17 12 17 14 16.1 14 15 13.1 13 12 13M13.35 21H5.5C4.58 21 3.81 20.38 3.58 19.54L1.04 10.27C1 10.18 1 10.09 1 10C1 9.45 1.45 9 2 9H6.79L11.17 2.45C11.36 2.16 11.68 2 12 2S12.64 2.16 12.83 2.44L17.21 9H22C22.55 9 23 9.45 23 10L22.97 10.27L22 13.81C21.43 13.5 20.79 13.24 20.12 13.11L20.7 11H3.31L5.5 19H13C13 19.7 13.13 20.37 13.35 21M9.2 9H14.8L12 4.8L9.2 9Z"/></svg>
